packages/icons/svg/24/ViewList.svg

<svg width="24" height="24" viewBox="0 0 24 24" fill="none" xmlns="http://www.w3.org/2000/svg">
<path d="M6 5C5.44772 5 5 5.44772 5 6V8C5 8.55228 5.44772 9 6 9H8C8.55228 9 9 8.55228 9 8V6C9 5.44772 8.55228 5 8 5H6Z" fill="#858585"/>
<path d="M6 10C5.44772 10 5 10.4477 5 11V13C5 13.5523 5.44772 14 6 14H8C8.55228 14 9 13.5523 9 13V11C9 10.4477 8.55228 10 8 10H6Z" fill="#858585"/>
<path d="M5 16C5 15.4477 5.44772 15 6 15H8C8.55228 15 9 15.4477 9 16V18C9 18.5523 8.55228 19 8 19H6C5.44772 19 5 18.5523 5 18V16Z" fill="#858585"/>
<path d="M11 5C10.4477 5 10 5.44772 10 6V8C10 8.55228 10.4477 9 11 9H18C18.5523 9 19 8.55228 19 8V6C19 5.44772 18.5523 5 18 5H11Z" fill="#858585"/>
<path d="M10 11C10 10.4477 10.4477 10 11 10H18C18.5523 10 19 10.4477 19 11V13C19 13.5523 18.5523 14 18 14H11C10.4477 14 10 13.5523 10 13V11Z" fill="#858585"/>
<path d="M11 15C10.4477 15 10 15.4477 10 16V18C10 18.5523 10.4477 19 11 19H18C18.5523 19 19 18.5523 19 18V16C19 15.4477 18.5523 15 18 15H11Z" fill="#858585"/>
</svg>

<svg width="24" height="24" fill="none" xmlns="http://www.w3.org/2000/svg" viewBox="0 0 24 24"><path d="M6 5a1 1 0 00-1 1v2a1 1 0 001 1h2a1 1 0 001-1V6a1 1 0 00-1-1H6zM6 10a1 1 0 00-1 1v2a1 1 0 001 1h2a1 1 0 001-1v-2a1 1 0 00-1-1H6zM5 16a1 1 0 011-1h2a1 1 0 011 1v2a1 1 0 01-1 1H6a1 1 0 01-1-1v-2zM11 5a1 1 0 00-1 1v2a1 1 0 001 1h7a1 1 0 001-1V6a1 1 0 00-1-1h-7zM10 11a1 1 0 011-1h7a1 1 0 011 1v2a1 1 0 01-1 1h-7a1 1 0 01-1-1v-2zM11 15a1 1 0 00-1 1v2a1 1 0 001 1h7a1 1 0 001-1v-2a1 1 0 00-1-1h-7z" fill="currentColor"></path></svg>
